assets/guide-angkot-icon.svg

<svg width="150" height="150" viewBox="0 0 150 150" fill="none" xmlns="http://www.w3.org/2000/svg">
<circle cx="75" cy="75" r="75" fill="#FFFFFF"/>
<path d="M45.5107 106.681C45.5107 105.641 45.4791 104.6 45.5257 103.562C45.5439 103.109 45.3494 102.967 44.972 102.91C44.1791 102.808 43.4029 102.603 42.6628 102.302C42.2747 102.165 41.9352 101.919 41.6861 101.593C41.4371 101.267 41.2895 100.875 41.2614 100.467C40.8108 96.6795 40.2456 92.9069 39.7917 89.1211C39.3893 85.6148 39.2864 82.0809 39.4842 78.5573C39.6846 74.6752 40.2044 70.8158 41.0386 67.0181C41.1433 66.5403 41.012 66.5089 40.6147 66.5139C39.3495 66.5321 38.0843 66.5222 36.8192 66.5205C36.479 66.5502 36.1367 66.4951 35.8234 66.3601C35.5722 66.2771 35.3555 66.114 35.207 65.8961C35.0586 65.6782 34.9865 65.4177 35.0021 65.1549C35.0619 64.1912 35.0187 63.2207 35.0187 62.2536C35.0187 61.3774 35.4244 60.8417 36.3504 60.8269C38.3382 60.7103 40.332 60.7401 42.3154 60.9161C42.6678 60.9624 42.7194 60.8236 42.8008 60.569C44.0714 56.8305 45.5619 53.1696 47.2646 49.6051C48.1476 47.386 49.6993 45.4929 51.7068 44.1853C53.7144 42.8777 56.0796 42.2196 58.4781 42.3013C61.1281 42.2567 63.7792 42.2606 66.4315 42.3129C67.0832 42.3245 67.301 42.0914 67.424 41.5161C67.5886 40.7424 67.8213 39.9785 68.0574 39.2215C68.2005 38.5635 68.5769 37.9787 69.1178 37.5738C69.6586 37.1689 70.3279 36.971 71.0033 37.0161C73.655 36.9946 76.3067 36.9946 78.9583 37.0161C79.6325 36.9656 80.3023 37.1599 80.8434 37.563C81.3845 37.9661 81.7602 38.5507 81.901 39.2082C82.1636 40.0348 82.413 40.868 82.6075 41.7111C82.7139 42.1724 82.9117 42.3063 83.3872 42.3063C86.378 42.2964 89.3722 42.2236 92.358 42.3642C94.5492 42.3988 96.6823 43.0698 98.4948 44.2947C100.307 45.5196 101.72 47.2448 102.559 49.2579C104.355 52.9119 105.898 56.6832 107.177 60.5458C107.229 60.7111 107.197 61.0252 107.563 60.9327C108.766 60.7647 109.982 60.7204 111.194 60.8004C111.922 60.769 112.654 60.7756 113.382 60.7988C114.532 60.8351 114.99 61.3112 114.99 62.4255V64.9648C115.015 65.167 114.994 65.3722 114.93 65.5656C114.865 65.759 114.758 65.9357 114.617 66.0829C114.475 66.2301 114.302 66.3441 114.111 66.4166C113.919 66.4891 113.714 66.5184 113.51 66.5022C112.198 66.5485 110.883 66.5386 109.571 66.5122C109.021 66.5006 108.828 66.5469 108.976 67.2114C109.958 71.6938 110.489 76.2618 110.564 80.8485C110.591 85.4126 110.238 89.971 109.51 94.4773C109.219 96.4347 108.951 98.397 108.745 100.364C108.729 100.799 108.581 101.219 108.32 101.568C108.059 101.917 107.698 102.179 107.284 102.32C106.639 102.601 105.955 102.785 105.256 102.864C104.571 102.917 104.454 103.221 104.466 103.828C104.503 105.739 104.483 107.65 104.478 109.561C104.511 110.135 104.317 110.699 103.938 111.132C103.559 111.566 103.024 111.835 102.448 111.882C100.509 112.039 98.5599 112.039 96.6206 111.884C96.3279 111.87 96.041 111.797 95.7772 111.671C95.5134 111.544 95.2781 111.365 95.0855 111.146C94.8929 110.926 94.747 110.67 94.6566 110.393C94.5661 110.115 94.533 109.823 94.5592 109.533C94.5558 107.865 94.5425 106.195 94.5675 104.527C94.5758 104.069 94.4378 103.953 93.9873 103.977C90.0089 104.19 86.0273 104.339 82.0423 104.362C79.3923 104.378 76.7439 104.486 74.0956 104.453C68.0474 104.375 61.9959 104.35 55.9561 103.972C55.5039 103.943 55.4424 104.12 55.4474 104.504C55.464 106.149 55.4574 107.794 55.4524 109.439C55.4826 109.754 55.4458 110.071 55.3445 110.371C55.2433 110.671 55.0797 110.947 54.8645 111.18C54.6492 111.413 54.3871 111.598 54.0952 111.724C53.8032 111.85 53.488 111.913 53.1698 111.91C51.3743 111.99 49.5688 111.993 47.7733 111.912C47.4551 111.917 47.1394 111.856 46.8472 111.73C46.555 111.605 46.293 111.419 46.0789 111.185C45.8647 110.951 45.7032 110.674 45.6053 110.373C45.5073 110.072 45.475 109.753 45.5107 109.439C45.5074 108.52 45.5107 107.6 45.5107 106.681ZM75.0931 47.1502C69.522 47.1502 63.9494 47.1287 58.38 47.1584C57.0068 47.1073 55.6501 47.4702 54.488 48.1995C53.3258 48.9288 52.4126 49.9905 51.8681 51.2451C51.4957 52.0056 51.1881 52.7941 50.8373 53.5645C48.9783 57.5009 47.4799 61.5958 46.3602 65.7997C46.2088 66.2944 46.176 66.8174 46.2644 67.327C46.3528 67.8366 46.5599 68.3185 46.8692 68.7342C47.1784 69.1499 47.5813 69.4878 48.0455 69.7209C48.5096 69.9539 49.0222 70.0757 49.5422 70.0765C50.051 70.1061 50.2621 69.9409 50.3751 69.4301C50.578 68.5126 50.8656 67.6116 51.1548 66.7172C51.3039 66.1358 51.6475 65.6221 52.1291 65.2607C52.6107 64.8992 53.2017 64.7115 53.8049 64.7284C56.6028 64.6987 59.4008 64.6981 62.1988 64.7268C62.8016 64.708 63.393 64.8934 63.876 65.2526C64.359 65.6118 64.705 66.1236 64.8571 66.704C65.1619 67.5433 65.4113 68.4014 65.6036 69.273C65.7316 69.9541 66.0391 70.0864 66.6792 70.0847C77.7481 70.065 88.8175 70.0606 99.8874 70.0715C99.9839 70.0715 100.082 70.0732 100.178 70.0715C100.735 70.1155 101.293 70.02 101.803 69.794C102.313 69.5679 102.758 69.2185 103.097 68.7775C103.436 68.3365 103.658 67.8181 103.744 67.2696C103.829 66.7211 103.775 66.1601 103.586 65.6377C102.216 60.7254 100.399 55.9468 98.1601 51.3608C97.6292 50.0597 96.7039 48.9553 95.5127 48.2013C94.3215 47.4473 92.9237 47.081 91.5135 47.1535C86.0406 47.1386 80.566 47.1502 75.0931 47.1502ZM74.9434 96.2248C83.5019 96.2248 92.061 96.2237 100.621 96.2215C101.652 96.2073 102.637 95.7892 103.361 95.0579C104.085 94.3267 104.49 93.3412 104.488 92.3151C104.48 91.2893 104.075 90.3059 103.356 89.5699C102.638 88.8338 101.661 88.4019 100.631 88.364C83.5368 88.3573 66.4426 88.3551 49.3477 88.3573C48.8367 88.3555 48.3313 88.4638 47.8664 88.6747C47.0419 89.049 46.3678 89.6881 45.9526 90.4892C45.5374 91.2904 45.4052 92.2071 45.5772 93.092C45.7427 93.9932 46.2282 94.8052 46.9453 95.3802C47.6624 95.9552 48.5634 96.255 49.484 96.2248C57.9711 96.2281 66.4575 96.2281 74.9434 96.2248ZM100.456 83.4738C100.982 83.4909 101.506 83.4022 101.996 83.2129C102.487 83.0236 102.933 82.7377 103.31 82.3724C103.687 82.0071 103.985 81.5699 104.187 81.087C104.39 80.6041 104.492 80.0855 104.488 79.5624C104.467 78.52 104.032 77.5281 103.278 76.8043C102.523 76.0805 101.51 75.6839 100.462 75.7017C99.4136 75.7194 98.4152 76.1499 97.6857 76.8988C96.9562 77.6477 96.5552 78.6538 96.5708 79.6963C96.5983 80.7044 97.0191 81.6623 97.7443 82.3673C98.4694 83.0723 99.4419 83.4692 100.456 83.4738ZM49.3793 83.4738C49.9052 83.491 50.4291 83.4022 50.9197 83.213C51.4102 83.0238 51.8572 82.7379 52.2339 82.3726C52.6106 82.0073 52.9092 81.57 53.1117 81.0871C53.3142 80.6042 53.4165 80.0856 53.4125 79.5624C53.3909 78.521 52.9551 77.5305 52.2006 76.808C51.4461 76.0854 50.4344 75.6897 49.387 75.7074C48.3397 75.7251 47.3421 76.1548 46.6127 76.9025C45.8833 77.6502 45.4817 78.6548 45.4957 79.6963C45.5229 80.7042 45.9434 81.6621 46.6682 82.3672C47.3931 83.0722 48.3654 83.4691 49.3793 83.4738Z" fill="#00152B"/>
</svg>

<svg xmlns="http://www.w3.org/2000/svg" width="150" height="150" fill="none" viewBox="0 0 150 150"><circle cx="75" cy="75" r="75" fill="#FFF"/><path fill="#00152B" d="M45.51 106.681c0-1.04-.03-2.081.016-3.119.018-.453-.177-.595-.554-.652a9.3 9.3 0 0 1-2.31-.608 2.093 2.093 0 0 1-1.401-1.835c-.45-3.787-1.015-7.56-1.47-11.346a62 62 0 0 1-.307-10.564c.2-3.882.72-7.741 1.555-11.539.104-.478-.027-.51-.424-.504-1.266.018-2.53.008-3.796.007-.34.03-.682-.026-.996-.16a1.191 1.191 0 0 1-.821-1.205c.06-.965.017-1.935.017-2.902 0-.877.405-1.412 1.331-1.427a40.6 40.6 0 0 1 5.965.09c.353.045.404-.093.486-.348 1.27-3.739 2.76-7.4 4.464-10.964a11.6 11.6 0 0 1 4.442-5.42 11.7 11.7 0 0 1 6.771-1.884q3.975-.066 7.953.012c.652.011.87-.222.993-.797.165-.774.397-1.538.633-2.294a2.8 2.8 0 0 1 1.06-1.648 2.83 2.83 0 0 1 1.886-.558q3.978-.032 7.955 0a2.8 2.8 0 0 1 1.885.547c.541.403.917.988 1.058 1.645.263.827.512 1.66.707 2.503.106.461.304.595.78.595 2.99-.01 5.984-.082 8.97.058 2.191.035 4.324.706 6.137 1.93a11.2 11.2 0 0 1 4.064 4.964 89 89 0 0 1 4.618 11.288c.052.165.02.48.386.387a17.8 17.8 0 0 1 3.631-.133c.728-.031 1.46-.024 2.188-.001 1.15.036 1.608.512 1.608 1.627v2.539a1.376 1.376 0 0 1-1.48 1.537 71 71 0 0 1-3.939.01c-.55-.011-.743.035-.595.7a69 69 0 0 1 1.588 13.636 82.4 82.4 0 0 1-1.054 13.63c-.291 1.957-.559 3.919-.765 5.886a2.14 2.14 0 0 1-.425 1.204 2.16 2.16 0 0 1-1.036.752 7 7 0 0 1-2.028.544c-.685.053-.802.357-.79.964.037 1.911.017 3.822.012 5.733a2.2 2.2 0 0 1-.54 1.571 2.22 2.22 0 0 1-1.49.75 36.3 36.3 0 0 1-5.827.002 2.183 2.183 0 0 1-1.535-.738 2.16 2.16 0 0 1-.527-1.613c-.003-1.668-.016-3.338.008-5.006.009-.458-.13-.574-.58-.55-3.978.213-7.96.362-11.945.385-2.65.016-5.298.124-7.946.091-6.049-.078-12.1-.103-18.14-.481-.452-.029-.514.148-.509.532.017 1.645.01 3.29.005 4.935a2.24 2.24 0 0 1-.587 1.741 2.27 2.27 0 0 1-1.695.73c-1.796.08-3.601.083-5.397.002a2.25 2.25 0 0 1-1.694-.727 2.22 2.22 0 0 1-.568-1.746c-.004-.919 0-1.839 0-2.758m29.583-59.53c-5.571 0-11.144-.022-16.713.007a6.84 6.84 0 0 0-3.892 1.041 6.8 6.8 0 0 0-2.62 3.046c-.372.76-.68 1.55-1.03 2.32A72 72 0 0 0 46.36 65.8a3.3 3.3 0 0 0 .51 2.934 3.33 3.33 0 0 0 2.672 1.343c.509.03.72-.136.833-.647.203-.917.49-1.818.78-2.713.149-.581.492-1.095.974-1.456a2.67 2.67 0 0 1 1.676-.533q4.197-.045 8.394-.001a2.67 2.67 0 0 1 1.677.526c.483.359.829.87.981 1.451q.458 1.26.747 2.569c.128.681.435.813 1.075.812q16.604-.03 33.208-.013h.291a3.36 3.36 0 0 0 2.919-1.294 3.307 3.307 0 0 0 .489-3.14A84 84 0 0 0 98.16 51.36a6.77 6.77 0 0 0-2.647-3.16 6.82 6.82 0 0 0-4-1.047c-5.472-.015-10.947-.004-16.42-.004m-.15 49.074 25.678-.003a3.93 3.93 0 0 0 2.74-1.164 3.89 3.89 0 0 0 1.127-2.743 3.97 3.97 0 0 0-1.132-2.745 4.01 4.01 0 0 0-2.725-1.206q-25.64-.01-51.283-.007a3.56 3.56 0 0 0-1.482.318 4.03 4.03 0 0 0-1.913 1.814 4 4 0 0 0-.376 2.603 3.82 3.82 0 0 0 1.368 2.288 3.86 3.86 0 0 0 2.539.845q12.73.004 25.46 0m25.513-12.751a3.92 3.92 0 0 0 2.854-1.102 3.87 3.87 0 0 0 1.178-2.81 3.93 3.93 0 0 0-1.21-2.758 3.973 3.973 0 0 0-5.592.095 3.93 3.93 0 0 0-1.115 2.797 3.87 3.87 0 0 0 1.173 2.671 3.92 3.92 0 0 0 2.712 1.107m-51.077 0a3.93 3.93 0 0 0 2.855-1.101 3.88 3.88 0 0 0 1.178-2.81 3.93 3.93 0 0 0-1.211-2.755 3.97 3.97 0 0 0-5.588.094 3.93 3.93 0 0 0-1.117 2.794 3.87 3.87 0 0 0 1.172 2.671 3.92 3.92 0 0 0 2.711 1.107"/></svg>
